X: 15
T: Apples In Winter
Z: G.Ryckeboer
S: https://thesession.org/tunes/299#setting47198
R: jig
M: 6/8
L: 1/8
K: Edor
|:BEE dFF|BAG FEF|DED FEF|ABc ded|
BEE dFF|ABc dcB|BdB AFF|E3 E3:|
|:e/f/ge fdB|e/f/ge fdB|ded dAF|DFA ded|
[1 e/f/ge fdB|e/f/ge fdB|gfg efg|afd d3:|
[2 AFF dFF|def gfe|dcB BdB|AGF E3||

